X: 41179
T: Tripping Up The Stairs
R: jig
M: 6/8
K: Dmajor
A2G|:FAd GBd|FAd fed|cBc ABc|dfe dAG|
FAd GBd|FAd fed|cBc ABc|1 dfe d2A:|2 dfed3||
|:dBB fBB|dBd fed|cAA eAA|efe ecA|
dBB fBB|dBd fed|cBc ABc|1 dfe d3]:|2 dfe d2A||

